X: 20237
T: Joe Derrane's
R: jig
M: 6/8
K: Aminor
|:~A3 AGE|GED DED|CEG cde|ged cAG|
AcA {c}AGE|GED ~D3|CEG cde|1 {e}dcA A2G:|2 dcA ABc||
|:dec {e}dcA|GEE cEE|cde geg|aee geg|
aee ~g3|age dcA|cde ged|1 cAG ABc:|2 cAG A3||

